symbols/be/PVO-{100}.svg

<?xml version="1.0" encoding="UTF-8" standalone="no"?>
<!-- Initially created with Inkscape, optimized by hand -->

<svg
   version="1.1"
   width="20"
   height="14.096813"
   id="svg1"
   xmlns="http://www.w3.org/2000/svg"
   xmlns:svg="http://www.w3.org/2000/svg">
  <defs
     id="defs1" />
  <rect
     x="0"
     y="0"
     width="20"
     height="14.096812"
     style="fill:#ffffff;stroke:none;stroke-width:0.0590319"
     id="Fond" />
  <circle
     cx="10"
     cy="7.0484047"
     r="5.8441563"
     style="fill:none;stroke:#000000;stroke-width:0.590319"
     id="circle1" />
  <path
     d="M 8.8460704,10.243084 V 3.8537296 c 0,-0.106667 -0.032,-0.192 -0.106667,-0.266667 -0.064,-0.07467 -0.362668,-0.149334 -0.501335,-0.01067 l -1.429338,1.429338 c -0.149334,0.149334 -0.096,0.426668 0.01067,0.533335 0.096,0.106667 0.352001,0.128 0.490668,-0.01067 l 0.821336,-0.832003 v 5.5573514 c 0,0.192001 0.170667,0.352001 0.362668,0.352001 0.192001,0 0.352001,-0.16 0.352001,-0.362667 z M 13.283407,8.8244126 v -3.552012 c 0,-0.981336 -0.789336,-1.781339 -1.770672,-1.781339 -0.981336,0 -1.7813386,0.800003 -1.7813386,1.781339 v 3.552012 c 0,0.981336 0.8000026,1.7813384 1.7813386,1.7813384 0.981336,0 1.770672,-0.8000024 1.770672,-1.7813384 z m -0.704002,0 c 0,0.597335 -0.480002,1.06667 -1.06667,1.06667 -0.597335,0 -1.06667,-0.469335 -1.06667,-1.06667 v -3.552012 c 0,-0.586668 0.469335,-1.06667 1.06667,-1.06667 0.586668,0 1.06667,0.480002 1.06667,1.06667 z"
     id="text1"
     style="font-size:10.6667px;font-family:Isonorm;-inkscape-font-specification:'Isonorm, Normal';fill-rule:evenodd;stroke-width:0.0944511"
     aria-label="10" />
</svg>

<?xml version="1.0" encoding="UTF-8"?>
<svg xmlns="http://www.w3.org/2000/svg" xmlns:xlink="http://www.w3.org/1999/xlink" width="20" height="14.096813" viewBox="0 0 20 14.096813">
<path fill-rule="nonzero" fill="rgb(100%, 100%, 100%)" fill-opacity="1" d="M 0 0 L 20 0 L 20 14.097656 L 0 14.097656 Z M 0 0 "/>
<path fill="none" stroke-width="0.590319" stroke-linecap="butt" stroke-linejoin="miter" stroke="rgb(0%, 0%, 0%)" stroke-opacity="1" stroke-miterlimit="4" d="M 15.84375 7.046875 C 15.84375 10.277344 13.226562 12.890625 10 12.890625 C 6.773438 12.890625 4.15625 10.277344 4.15625 7.046875 C 4.15625 3.820312 6.773438 1.203125 10 1.203125 C 13.226562 1.203125 15.84375 3.820312 15.84375 7.046875 Z M 15.84375 7.046875 "/>
<path fill-rule="evenodd" fill="rgb(0%, 0%, 0%)" fill-opacity="1" d="M 8.847656 10.242188 L 8.847656 3.855469 C 8.847656 3.746094 8.8125 3.660156 8.738281 3.585938 C 8.675781 3.511719 8.375 3.4375 8.238281 3.578125 L 6.808594 5.003906 C 6.660156 5.15625 6.710938 5.433594 6.820312 5.539062 C 6.914062 5.644531 7.171875 5.667969 7.308594 5.527344 L 8.132812 4.695312 L 8.132812 10.253906 C 8.132812 10.445312 8.300781 10.605469 8.492188 10.605469 C 8.6875 10.605469 8.847656 10.445312 8.847656 10.242188 Z M 13.285156 8.824219 L 13.285156 5.273438 C 13.285156 4.292969 12.492188 3.492188 11.511719 3.492188 C 10.53125 3.492188 9.730469 4.292969 9.730469 5.273438 L 9.730469 8.824219 C 9.730469 9.804688 10.53125 10.605469 11.511719 10.605469 C 12.492188 10.605469 13.285156 9.804688 13.285156 8.824219 Z M 12.578125 8.824219 C 12.578125 9.421875 12.097656 9.890625 11.511719 9.890625 C 10.914062 9.890625 10.445312 9.421875 10.445312 8.824219 L 10.445312 5.273438 C 10.445312 4.6875 10.914062 4.207031 11.511719 4.207031 C 12.097656 4.207031 12.578125 4.6875 12.578125 5.273438 Z M 12.578125 8.824219 "/>
</svg>
